src/symbolic/status/user-idle-symbolic.svg

<svg xmlns="http://www.w3.org/2000/svg" width="16" height="16"><path d="M8 2c1.66 0 3 1.34 3 3 0 1.65-1.34 3-3 3S5 6.65 5 5c0-1.66 1.34-3 3-3zm0 8c6-.01 6 4 6 4v1H2v-1s0-4 6-4z" opacity=".3" fill="#444"/></svg>

<svg xmlns="http://www.w3.org/2000/svg" width="16" height="16" version="1.1">
 <path style="opacity:0.3;fill:#444444" d="M 8,2 C 9.66,2 11,3.34 11,5 11,6.65 9.66,8 8,8 6.34,8 5,6.65 5,5 5,3.34 6.34,2 8,2 Z M 8,10 C 14,9.99 14,14 14,14 V 15 H 2 V 14 C 2,14 2,10 8,10 Z"/>
</svg>
